public/shuffle-not.svg

<svg width="24" height="24" viewBox="0 0 24 24" fill="none" xmlns="http://www.w3.org/2000/svg">
<path d="M3 17.9793L5.384 17.9913C6.393 17.9963 7.336 17.4943 7.896 16.6553L14.105 7.34126C14.663 6.50326 15.605 6.00226 16.612 6.00526L21 6.02126" stroke="white" stroke-width="2" stroke-linecap="round" stroke-linejoin="round"/>
<path d="M19 19.9792L21 17.9792L19 15.9792" stroke="white" stroke-width="2" stroke-linecap="round" stroke-linejoin="round"/>
<path d="M8.893 8.62522L7.904 7.25322C7.337 6.46722 6.425 6.00322 5.455 6.00822L3 6.02122" stroke="white" stroke-width="2" stroke-linecap="round" stroke-linejoin="round"/>
<path d="M12.969 15.3752L14.095 16.8312C14.665 17.5682 15.546 17.9982 16.478 17.9952L21 17.9792" stroke="white" stroke-width="2" stroke-linecap="round" stroke-linejoin="round"/>
<path d="M19 8.02124L21 6.02124L19 4.02124" stroke="white" stroke-width="2" stroke-linecap="round" stroke-linejoin="round"/>
</svg>

<svg width="24" height="24" viewBox="0 0 24 24" fill="none" stroke="#fff" stroke-width="2" stroke-linecap="round" stroke-linejoin="round" xmlns="http://www.w3.org/2000/svg"><path d="M3 17.98l2.384.011a3.002 3.002 0 002.512-1.336l6.209-9.314a3 3 0 012.507-1.336L21 6.021M19 19.98l2-2-2-2M8.893 8.625l-.989-1.372a3 3 0 00-2.449-1.245L3 6.021"/><path d="M12.969 15.375l1.126 1.456a3 3 0 002.383 1.164L21 17.98M19 8.021l2-2-2-2"/></svg>
